X:1
T:My Love is Like a Red Red Rose
M:4/4
L:1/8
K:F
 z4 z2 z F| C3/2 D/2 F3/2 F/2 F3/2 F/2 f3/2 d/2| cA G3/2 F/2 G3 A/2A/2|\
 C3/2 D/2 F3/2 F/2F/2 F3/2 f3/2 d/2| c/2 A3/2 G3/2 A/2 F3c/2-e/2| f3/2 g/2 fe d3/2 c/2 d3/2 f/2|\
 cA GF G3 e| f3/2 g/2 fe d3/2 c/2 df| c3/2 A/2 G3/2 A/2 F3 z|
